web/app/themes/new-web-marcello/dist/images/icons/plugin-service-icon.svg

<svg width="188" height="188" viewBox="0 0 188 188" fill="none" xmlns="http://www.w3.org/2000/svg">
<path d="M33.4104 92.0481V95.9506C33.4104 97.6822 34.8138 99.0856 36.5454 99.0856H45.073V92.0481H33.4104Z" fill="#EBE7F2"/>
<path d="M45.073 101.421V107.171C45.073 108.657 46.2781 109.863 47.7645 109.863H72.4145V101.422H45.073V101.421Z" fill="#EBE7F2"/>
<path d="M112.667 116.446L72.4152 101.632V109.862L112.667 124.676C114.424 125.323 116.288 124.023 116.288 122.151V113.921C116.288 115.793 114.424 117.093 112.667 116.446Z" fill="#EBE7F2"/>
<path d="M66.8751 40.1233C66.2751 39.2421 64.9753 39.2421 64.3753 40.1233L55.023 53.8591L51.3827 48.5121C50.782 47.6309 49.4829 47.6309 48.8829 48.5121L40.1108 61.396C40.1461 62.2001 40.8041 62.8427 41.6163 62.8427H48.9064H61.1389H69.2493C70.0843 62.8427 70.7614 62.1656 70.7614 61.3306V45.8324L66.8751 40.1233Z" fill="#EBE7F2"/>
<path d="M50.1328 43.5653C52.2728 43.5653 54.0081 41.83 54.0081 39.69C54.0081 37.55 52.2728 35.8147 50.1328 35.8147C47.9929 35.8147 46.2575 37.55 46.2575 39.69C46.2575 41.83 47.9921 43.5653 50.1328 43.5653Z" fill="#EBE7F2"/>
<path d="M109.919 133.85H78.783C77.8334 133.85 76.9757 134.227 76.336 134.832L91.636 146.911C93.2281 148.167 95.4739 148.167 97.066 146.911L112.366 134.832C111.726 134.228 110.869 133.85 109.919 133.85Z" fill="#EBE7F2"/>
<path d="M123.943 52.6716C123.943 51.9776 123.982 51.2924 124.054 50.6168C125.079 60.2415 133.224 67.7388 143.12 67.7388C153.017 67.7388 161.16 60.2415 162.186 50.6168C162.258 51.2917 162.297 51.9769 162.297 52.6716C162.297 63.2628 153.711 71.8483 143.12 71.8483C139.124 71.8483 135.416 70.6249 132.344 68.5348V68.5356L124.354 71.3864L129.992 66.6438C126.271 63.1453 123.943 58.1816 123.943 52.6716Z" fill="#EBE7F2"/>
<path d="M143.12 56.5007C141.561 56.5007 140.297 55.2368 140.297 53.6777V42.5049C140.297 40.9459 141.561 39.682 143.12 39.682C144.679 39.682 145.943 40.9459 145.943 42.5049V53.6777C145.943 55.2368 144.679 56.5007 143.12 56.5007Z" fill="#58518c"/>
<path d="M143.12 64.73C144.679 64.73 145.943 63.4661 145.943 61.907C145.943 60.348 144.679 59.0841 143.12 59.0841C141.561 59.0841 140.297 60.348 140.297 61.907C140.297 63.4661 141.561 64.73 143.12 64.73Z" fill="#58518c"/>
<path d="M129.673 91.0793V90.6306C129.673 83.8737 124.636 78.2851 118.123 77.3862V59.5592C118.123 58.0802 117.399 56.6922 116.185 55.8455C114.973 55.0002 113.419 54.7997 112.033 55.3109L72.0885 70.0123H47.7652C45.2691 70.0123 43.2378 72.0436 43.2378 74.5397V80.7893H36.5462C33.8055 80.7893 31.5752 83.0196 31.5752 85.761V95.9505C31.5752 98.6911 33.8055 100.922 36.5462 100.922H43.2378V107.172C43.2378 109.668 45.2691 111.699 47.7652 111.699H52.0004L58.1545 131.677C58.3917 132.447 59.1033 132.973 59.9089 132.973H67.376C67.918 132.973 68.4328 132.733 68.7816 132.317C69.1304 131.902 69.278 131.354 69.184 130.82L65.8389 111.698H72.0892L112.033 126.4C112.539 126.587 113.069 126.679 113.596 126.679C114.51 126.679 115.417 126.402 116.185 125.866C117.399 125.02 118.123 123.631 118.123 122.152V104.325C124.637 103.425 129.673 97.8363 129.673 91.0793ZM36.5455 97.2496C35.8287 97.2496 35.2464 96.6665 35.2464 95.9497V85.7603C35.2464 85.0435 35.8287 84.4604 36.5455 84.4604H43.2371V97.2488H36.5455V97.2496ZM46.909 107.171V99.0855V82.6252V74.5397C46.909 74.0675 47.2923 73.6842 47.7645 73.6842H70.5786V108.027H63.7093C63.7071 108.027 63.7056 108.027 63.7034 108.027H47.7652C47.293 108.027 46.909 107.642 46.909 107.171ZM65.1912 129.299H61.2645L55.8426 111.698H62.1113L65.1912 129.299ZM114.452 122.151C114.452 122.539 114.222 122.757 114.086 122.853C113.949 122.948 113.666 123.088 113.302 122.954L74.2512 108.582V73.129L113.302 58.7566C113.666 58.6229 113.949 58.7624 114.086 58.8579C114.222 58.9534 114.452 59.1715 114.452 59.5592V79.0811V102.63V122.151ZM118.123 100.62V81.0911C122.605 81.9518 126.002 85.902 126.002 90.6306V91.0793C126.001 95.8087 122.605 99.7589 118.123 100.62Z" fill="#846F75"/>
<path d="M41.479 64.6786H69.3874C71.158 64.6786 72.5981 63.2385 72.5981 61.4679V31.3519C72.5981 29.5813 71.158 28.1412 69.3874 28.1412H41.479C39.7084 28.1412 38.2683 29.5813 38.2683 31.3519V61.4679C38.2683 63.2385 39.7084 64.6786 41.479 64.6786ZM41.9402 31.8131H68.9263V61.0067H41.9402V31.8131Z" fill="#846F75"/>
<path d="M109.92 132.014H78.7831C75.803 132.014 73.3788 134.439 73.3788 137.418V154.454C73.3788 157.434 75.803 159.858 78.7831 159.858H109.92C112.9 159.858 115.323 157.433 115.323 154.454V137.418C115.323 134.438 112.899 132.014 109.92 132.014ZM111.652 154.454C111.652 155.409 110.875 156.186 109.92 156.186H78.7831C77.8277 156.186 77.0507 155.408 77.0507 154.454V137.418C77.0507 136.463 77.8277 135.686 78.7831 135.686H109.92C110.875 135.686 111.652 136.464 111.652 137.418V154.454Z" fill="#846F75"/>
<path d="M122.625 70.7695C122.387 71.4371 122.555 72.1832 123.056 72.6841C123.558 73.1871 124.306 73.3509 124.971 73.1151L132.108 70.5683C135.416 72.6092 139.203 73.6835 143.12 73.6835C154.706 73.6835 164.132 64.2578 164.132 52.6716C164.132 41.0854 154.706 31.6589 143.12 31.6589C131.534 31.6589 122.108 41.0854 122.108 52.6716C122.108 56.5594 123.167 60.3223 125.179 63.6123L122.625 70.7695ZM143.12 35.3308C152.683 35.3308 160.461 43.11 160.461 52.6716C160.461 62.2332 152.682 70.0117 143.12 70.0117C139.625 70.0117 136.257 68.9762 133.377 67.0169C133.069 66.8069 132.708 66.6982 132.345 66.6982C132.137 66.6982 131.928 66.7334 131.728 66.8054L127.386 68.3549L128.939 63.9964C129.136 63.4471 129.058 62.8368 128.732 62.3536C126.801 59.4895 125.779 56.1415 125.779 52.6709C125.779 43.11 133.559 35.3308 143.12 35.3308Z" fill="#846F75"/>
<path d="M154.36 111.402H131.88C129.539 111.402 127.635 113.306 127.635 115.646V138.127C127.635 140.468 129.539 142.372 131.88 142.372H154.36C156.702 142.372 158.605 140.468 158.605 138.127V115.646C158.606 113.306 156.702 111.402 154.36 111.402ZM154.934 138.128C154.934 138.444 154.677 138.701 154.361 138.701H131.88C131.564 138.701 131.308 138.444 131.308 138.128V115.647C131.308 115.331 131.565 115.074 131.88 115.074H154.361C154.678 115.074 154.934 115.331 154.934 115.647V138.128Z" fill="#846F75"/>
<path d="M150.009 128.093L140.874 134.286C139.909 134.94 138.604 134.248 138.604 133.082V120.697C138.604 119.531 139.909 118.839 140.874 119.494L150.009 125.686C150.86 126.263 150.86 127.517 150.009 128.093Z" fill="#58518c"/>
</svg>

<svg width="188" height="188" fill="none" xmlns="http://www.w3.org/2000/svg"><path d="M33.41 92.048v3.903a3.135 3.135 0 003.135 3.135h8.528v-7.038H33.41zm11.663 9.373v5.75a2.692 2.692 0 002.691 2.692h24.65v-8.441h-27.34v-.001zm67.594 15.025l-40.252-14.814v8.23l40.252 14.814a2.69 2.69 0 003.621-2.525v-8.23a2.69 2.69 0 01-3.621 2.525zM66.875 40.123c-.6-.88-1.9-.88-2.5 0L55.023 53.86l-3.64-5.347a1.513 1.513 0 00-2.5 0L40.11 61.396a1.51 1.51 0 001.505 1.447H69.25c.835 0 1.512-.677 1.512-1.512V45.832l-3.886-5.709zm-16.742 3.442a3.876 3.876 0 100-7.751 3.876 3.876 0 000 7.751zm59.786 90.285H78.783a3.55 3.55 0 00-2.447.982l15.3 12.079a4.384 4.384 0 005.43 0l15.3-12.079a3.554 3.554 0 00-2.447-.982zm14.024-81.178c0-.694.039-1.38.111-2.055 1.025 9.625 9.17 17.122 19.066 17.122 9.897 0 18.04-7.498 19.066-17.122.072.675.111 1.36.111 2.055 0 10.59-8.586 19.176-19.177 19.176a19.089 19.089 0 01-10.776-3.313l-7.99 2.851 5.638-4.742c-3.721-3.499-6.049-8.462-6.049-13.972z" fill="#EBE7F2"/><path d="M143.12 56.5a2.823 2.823 0 01-2.823-2.822V42.505a2.823 2.823 0 015.646 0v11.173a2.823 2.823 0 01-2.823 2.823zm0 8.23a2.823 2.823 0 100-5.646 2.823 2.823 0 000 5.646z" fill="#58518c"/><path d="M129.673 91.08v-.45c0-6.756-5.037-12.345-11.55-13.244V59.56a4.528 4.528 0 00-6.09-4.248l-39.945 14.7H47.765a4.533 4.533 0 00-4.527 4.528v6.25h-6.692a4.977 4.977 0 00-4.97 4.971v10.19c0 2.74 2.23 4.971 4.97 4.971h6.692v6.25a4.533 4.533 0 004.527 4.527H52l6.154 19.978c.238.77.95 1.296 1.755 1.296h7.467a1.835 1.835 0 001.808-2.153l-3.345-19.122h6.25l39.944 14.702a4.526 4.526 0 006.09-4.248v-17.827c6.514-.9 11.55-6.489 11.55-13.246zm-93.127 6.17a1.3 1.3 0 01-1.3-1.3V85.76a1.3 1.3 0 011.3-1.3h6.691v12.79h-6.692zm10.363 9.921V74.54c0-.473.383-.856.855-.856H70.58v34.343H47.765a.858.858 0 01-.856-.856zm18.282 22.128h-3.927l-5.421-17.601h6.268l3.08 17.601zm49.261-7.148a.84.84 0 01-.366.702.836.836 0 01-.784.101l-39.05-14.372V73.129l39.05-14.372a.836.836 0 01.784.1.839.839 0 01.366.702v62.592zm3.671-21.531V81.091c4.482.86 7.879 4.811 7.879 9.54v.448c-.001 4.73-3.397 8.68-7.879 9.541z" fill="#846F75"/><path d="M41.479 64.679h27.908a3.214 3.214 0 003.211-3.211V31.352c0-1.77-1.44-3.21-3.21-3.21h-27.91c-1.77 0-3.21 1.44-3.21 3.21v30.116c0 1.77 1.44 3.21 3.21 3.21zm.461-32.866h26.986v29.194H41.94V31.813zm67.98 100.201H78.783a5.41 5.41 0 00-5.404 5.404v17.036a5.41 5.41 0 005.404 5.404h31.137a5.41 5.41 0 005.403-5.404v-17.036a5.41 5.41 0 00-5.403-5.404zm1.732 22.44c0 .955-.777 1.732-1.732 1.732H78.783a1.735 1.735 0 01-1.732-1.732v-17.036c0-.955.777-1.732 1.732-1.732h31.137c.955 0 1.732.778 1.732 1.732v17.036zm10.973-83.684a1.837 1.837 0 002.346 2.345l7.137-2.547a20.899 20.899 0 0011.012 3.115c11.586 0 21.012-9.425 21.012-21.011 0-11.587-9.426-21.013-21.012-21.013s-21.012 9.426-21.012 21.013c0 3.887 1.059 7.65 3.071 10.94l-2.554 7.157zm20.495-35.44c9.563 0 17.341 7.78 17.341 17.342 0 9.561-7.779 17.34-17.341 17.34a17.25 17.25 0 01-9.743-2.995 1.834 1.834 0 00-1.649-.212l-4.342 1.55 1.553-4.359a1.83 1.83 0 00-.207-1.642 17.257 17.257 0 01-2.953-9.683c0-9.561 7.78-17.34 17.341-17.34zm11.24 76.072h-22.48a4.25 4.25 0 00-4.245 4.244v22.481a4.25 4.25 0 004.245 4.245h22.48a4.249 4.249 0 004.245-4.245v-22.481a4.248 4.248 0 00-4.245-4.244zm.574 26.726a.574.574 0 01-.573.573H131.88a.573.573 0 01-.572-.573v-22.481c0-.316.257-.573.572-.573h22.481c.317 0 .573.257.573.573v22.481z" fill="#846F75"/><path d="M150.009 128.093l-9.135 6.193c-.965.654-2.27-.038-2.27-1.204v-12.385c0-1.166 1.305-1.858 2.27-1.203l9.135 6.192a1.454 1.454 0 010 2.407z" fill="#58518c"/></svg>
